X: 1026
T: The Old Horned Sheep
N:"Collected by F.O'Neill"
B:O'Neill's 1026
Z:Transcribed by Dan G. Petersen, dangp@post6.tele.dk
M:6/8
L:1/8
K:G
(3d/e/f/||"S"g2G GFG|EGG DGG|g2G GFG|EAG FED|
g2G GFG|EGG DGG|EGG FGA|BGG HG2:|
z|Bdd dBG|Bdd d2G|Bdd dBG|cAA A2c|
Bdd dBG|Bdd def|gfe dcB|ABG FE"S"D:|


